web/packages/design/src/ResourceIcon/assets/digitalocean.svg

<svg width="72" height="72" viewBox="0 0 72 72" fill="none" xmlns="http://www.w3.org/2000/svg">
<g clip-path="url(#clip0_15937_7226)">
<path d="M36.0492 58.0586V72.0005C59.5966 72.0005 77.921 49.2487 70.2146 24.53C66.7894 13.7528 58.2266 5.11402 47.4376 1.77824C22.777 -5.91969 0 12.4698 0 35.9913H13.9573C13.9573 21.2797 28.5995 9.81829 44.1837 15.4635C49.9207 17.5162 54.5447 22.135 56.5998 27.8656C62.2511 43.4327 50.8628 58.0586 36.0492 58.0586Z" fill="#0069FF"/>
<path d="M22.1748 58.1448H36.0463V44.2886H22.1748V58.1448Z" fill="#0069FF"/>
<path d="M22.1731 68.8405H11.4697V58.1498L22.1731 58.1489V68.8405Z" fill="#0069FF"/>
<path d="M2.4873 58.1498H11.3925V49.2544H2.4873V58.1498Z" fill="#0069FF"/>
</g>
<defs>
<clipPath id="clip0_15937_7226">
<rect width="72" height="72" fill="white" transform="translate(0 0.000488281)"/>
</clipPath>
</defs>
</svg>

<svg xmlns="http://www.w3.org/2000/svg" width="72" height="72" fill="none" viewBox="0 0 72 72"><g fill="#0069ff" clip-path="url(#clip0_15937_7226)"><path d="M36.05 58.059V72c23.546 0 41.87-22.751 34.164-47.47C66.789 13.753 58.227 5.114 47.438 1.778 22.777-5.92 0 12.47 0 35.991h13.957c0-14.711 14.642-26.173 30.227-20.527 5.737 2.052 10.36 6.671 12.416 12.402 5.651 15.567-5.737 30.193-20.55 30.193"/><path d="M22.175 58.145h13.871V44.289H22.175zm-.002 10.695H11.47V58.15l10.703-.001zM2.487 58.15h8.906v-8.896H2.486z"/></g><defs><clipPath id="clip0_15937_7226"><path fill="#fff" d="M0 0h72v72H0z"/></clipPath></defs></svg>
